Numix/32/mimetypes/application-x-navi-animation.svg

<?xml version="1.0" encoding="UTF-8" standalone="no"?>
<svg
   xmlns:dc="http://purl.org/dc/elements/1.1/"
   xmlns:cc="http://creativecommons.org/ns#"
   xmlns:rdf="http://www.w3.org/1999/02/22-rdf-syntax-ns#"
   xmlns:svg="http://www.w3.org/2000/svg"
   xmlns="http://www.w3.org/2000/svg"
   xmlns:sodipodi="http://sodipodi.sourceforge.net/DTD/sodipodi-0.dtd"
   xmlns:inkscape="http://www.inkscape.org/namespaces/inkscape"
   width="32"
   height="32"
   viewBox="0 0 32 32"
   id="svg2"
   version="1.1"
   inkscape:version="0.91 r13725"
   sodipodi:docname="application-x-navi-animation.svg">
  <metadata
     id="metadata16">
    <rdf:RDF>
      <cc:Work
         rdf:about="">
        <dc:format>image/svg+xml</dc:format>
        <dc:type
           rdf:resource="http://purl.org/dc/dcmitype/StillImage" />
        <dc:title />
      </cc:Work>
    </rdf:RDF>
  </metadata>
  <defs
     id="defs14">
    <clipPath
       id="clipPath-258929573">
      <g
         transform="translate(0,-1004.3622)"
         id="g17">
        <path
           inkscape:connector-curvature="0"
           d="m -24,13 c 0,1.105 -0.672,2 -1.5,2 -0.828,0 -1.5,-0.895 -1.5,-2 0,-1.105 0.672,-2 1.5,-2 0.828,0 1.5,0.895 1.5,2 z"
           transform="matrix(15.333333,0,0,11.5,414.99999,878.8622)"
           style="fill:#1890d0"
           id="path19" />
      </g>
    </clipPath>
  </defs>
  <sodipodi:namedview
     pagecolor="#ffffff"
     bordercolor="#666666"
     borderopacity="1"
     objecttolerance="10"
     gridtolerance="10"
     guidetolerance="10"
     inkscape:pageopacity="0"
     inkscape:pageshadow="2"
     inkscape:window-width="1920"
     inkscape:window-height="1013"
     id="namedview12"
     showgrid="false"
     inkscape:zoom="11.313708"
     inkscape:cx="0.83290119"
     inkscape:cy="-13.852736"
     inkscape:window-x="0"
     inkscape:window-y="27"
     inkscape:window-maximized="1"
     inkscape:current-layer="svg2">
    <inkscape:grid
       type="xygrid"
       id="grid3004" />
  </sodipodi:namedview>
  <path
     style="fill:#757d32;fill-opacity:1"
     d="M 5.335888,2.97e-4 C 4.648414,3.12e-4 4,0.676788 4,1.394031 L 4,30.606268 C 4,31.282757 4.687474,32 5.335888,32 l 21.327332,0 c 0.648414,0 1.335888,-0.717243 1.335888,-1.393732 L 28,8.9999999 19,0 z"
     id="path4-1"
     inkscape:connector-curvature="0"
     sodipodi:nodetypes="ssssssccs" />
  <path
     style="fill:#000000;fill-opacity:0.19599998"
     d="M 21,8.9999999 28,16 28,8.9999999 z"
     id="path6-4"
     inkscape:connector-curvature="0"
     sodipodi:nodetypes="cccc" />
  <path
     style="fill:#ffffff;fill-opacity:0.39200003"
     d="m 19.000306,2.97e-4 8.991594,8.9997029 -7.613262,0 c -0.672951,0 -1.378332,-0.7134896 -1.378332,-1.3864402 z"
     id="path8-6"
     inkscape:connector-curvature="0"
     sodipodi:nodetypes="ccssc" />
  <path
     sodipodi:nodetypes="cccccccc"
     inkscape:connector-curvature="0"
     id="path3809"
     d="m 13,10 0.01403,9.907756 2.198783,-2.242265 L 16.972223,21 18.561112,20.214285 16.996799,16.917799 20.15,16.916987 Z"
     style="color:#000000;display:inline;overflow:visible;visibility:visible;fill:#f9f9f9;fill-opacity:1;fill-rule:nonzero;stroke:none;stroke-width:2.5;marker:none;enable-background:accumulate" />
  <path
     style="fill:#000000;fill-opacity:0.19599998"
     d="m 4,24 0,6.667969 C 4,31.316407 4.6875,32 5.3320311,32 L 26.667969,32 C 27.3125,32 28,31.316407 28,30.667969 L 28,24 Z"
     id="path3011"
     inkscape:connector-curvature="0" />
  <path
     inkscape:connector-curvature="0"
     id="path4151"
     style="font-style:normal;font-variant:normal;font-weight:bold;font-stretch:normal;font-size:9.93207455px;line-height:125%;font-family:'Ubuntu Mono';-inkscape-font-specification:'Ubuntu Mono, Bold';text-align:start;letter-spacing:0px;word-spacing:0px;writing-mode:lr-tb;text-anchor:start;fill:#ffffff;fill-opacity:1;stroke:none;stroke-width:1px;stroke-linecap:butt;stroke-linejoin:miter;stroke-opacity:1"
     d="M 11.630705,31 11.329876,30 9.6182578,30 9.3278008,31 8,31 C 8.3042877,29.817447 8.6120332,28.741518 8.9232366,27.772213 9.2344401,26.796446 9.5352698,25.872375 9.8257258,25 l 1.3900422,0 c 0.304287,0.878837 0.605117,1.812601 0.90249,2.801292 C 12.422546,28.783522 12.71646,29.849758 13,31 Z m -1.141078,-4.836833 c -0.06916,0.226171 -0.134854,0.442649 -0.197095,0.649434 l -0.165976,0.60097 c -0.04841,0.193861 -0.09682,0.390953 -0.1452282,0.591276 C 9.9398345,28.20517 9.7414947,28.786955 9.7,29.000202 l 1.5,0 c -0.04149,-0.213247 -0.170954,-0.795032 -0.212447,-0.995355 -0.04149,-0.200323 -0.0899,-0.397415 -0.145229,-0.591276 -0.0484,-0.200323 -0.103725,-0.400647 -0.165976,-0.60097 -0.05533,-0.206785 -0.117567,-0.423263 -0.186721,-0.649434 z"
     sodipodi:nodetypes="cccccccccccccccccsccc" />
  <path
     inkscape:connector-curvature="0"
     id="path4153"
     style="font-style:normal;font-variant:normal;font-weight:bold;font-stretch:normal;font-size:9.93207455px;line-height:125%;font-family:'Ubuntu Mono';-inkscape-font-specification:'Ubuntu Mono, Bold';text-align:start;letter-spacing:0px;word-spacing:0px;writing-mode:lr-tb;text-anchor:start;fill:#ffffff;fill-opacity:1;stroke:none;stroke-width:1px;stroke-linecap:butt;stroke-linejoin:miter;stroke-opacity:1"
     d="M 17.029412,31 Q 16.617647,30.001615 16.127451,29.012925 15.647059,28.01454 15.088235,27.016155 L 15.088235,31 14,31 l 0,-6 0.970587,0 q 0.274512,0.426494 0.549021,0.930533 0.27451,0.494346 0.529412,0.988692 0.264705,0.494346 0.480392,0.959612 0.22549,0.465267 0.382352,0.814216 L 16.911764,25 18,25 l 0,6 -0.970588,0 z" />
  <path
     inkscape:connector-curvature="0"
     id="path4155"
     style="font-style:normal;font-variant:normal;font-weight:bold;font-stretch:normal;font-size:9.93207455px;line-height:125%;font-family:'Ubuntu Mono';-inkscape-font-specification:'Ubuntu Mono, Bold';text-align:start;letter-spacing:0px;word-spacing:0px;writing-mode:lr-tb;text-anchor:start;fill:#ffffff;fill-opacity:1;stroke:none;stroke-width:1px;stroke-linecap:butt;stroke-linejoin:miter;stroke-opacity:1"
     d="m 19.5,31 0,-0.988692 1.373894,0 0,-4.022616 -1.373894,0 0,-0.988692 3.999557,0 0,0.988692 -1.363717,0 0,4.022616 1.363717,0 0,0.988692 L 19.5,31 Z" />
</svg>

<svg xmlns="http://www.w3.org/2000/svg" viewBox="0 0 32 32">
 <defs>
  
 </defs>
 <path d="m 5.336 0 c -0.687 0 -1.336 0.676 -1.336 1.394 l 0 29.21 c 0 0.676 0.687 1.394 1.336 1.394 l 21.327 0 c 0.648 0 1.336 -0.717 1.336 -1.394 l 0.001 -21.606 -9 -9 z" style="fill:#757d32;fill-opacity:1"/>
 <path d="m 21 9 7 7 0 -7 z" style="fill:#000;fill-opacity:0.196"/>
 <path d="m 19 0 8.992 9 -7.613 0 c -0.673 0 -1.378 -0.713 -1.378 -1.386 z" style="fill:#fff;fill-opacity:0.392"/>
 <path d="m 13 10 0.014 9.908 2.199 -2.242 l 1.759 3.335 1.589 -0.786 -1.564 -3.296 3.153 -0.001" style="visibility:visible;fill:#f9f9f9;fill-opacity:1;stroke:none;display:inline;color:#000;fill-rule:nonzero"/>
 <path d="m 4 24 0 6.668 c 0 0.648 0.688 1.332 1.332 1.332 l 21.336 0 c 0.645 0 1.332 -0.684 1.332 -1.332 l 0 -6.668" style="fill:#000;fill-opacity:0.196"/>
 <path d="m 11.631 31 -0.301 -1 -1.712 0 -0.29 1 -1.328 0 c 0.304 -1.183 0.612 -2.258 0.923 -3.228 0.311 -0.976 0.612 -1.9 0.902 -2.772 l 1.39 0 c 0.304 0.879 0.605 1.813 0.902 2.801 c 0.304 0.982 0.598 2.048 0.882 3.199 m -2.51 -4.837 c -0.069 0.226 -0.135 0.443 -0.197 0.649 l -0.166 0.601 c -0.048 0.194 -0.097 0.391 -0.145 0.591 c -0.041 0.2 -0.24 0.782 -0.281 0.995 l 1.5 0 c -0.041 -0.213 -0.171 -0.795 -0.212 -0.995 -0.041 -0.2 -0.09 -0.397 -0.145 -0.591 -0.048 -0.2 -0.104 -0.401 -0.166 -0.601 -0.055 -0.207 -0.118 -0.423 -0.187 -0.649 z" style="fill:#fff;fill-opacity:1;stroke:none"/>
 <path d="m 17.03 31 q -0.412 -0.998 -0.902 -1.987 -0.48 -0.998 -1.039 -1.997 l 0 3.984 -1.088 0 l 0 -6 0.971 0 q 0.275 0.426 0.549 0.931 0.275 0.494 0.529 0.989 0.265 0.494 0.48 0.96 0.225 0.465 0.382 0.814 l 0 -3.693 1.088 0 l 0 6 -0.971 0 z" style="fill:#fff;fill-opacity:1;stroke:none"/>
 <path d="m 19.5 31 0 -0.989 1.374 0 0 -4.02 -1.374 0 0 -0.989 4 0 0 0.989 -1.364 0 0 4.02 1.364 0 0 0.989 l -4 0" style="fill:#fff;fill-opacity:1;stroke:none"/>
</svg>
